Desktop/project_createx/public/images/About/view.svg

<svg width="48" height="48" viewBox="0 0 48 48" fill="none" xmlns="http://www.w3.org/2000/svg">
<g clip-path="url(#clip0_16400_1250)">
<path d="M24 11.25C22.1605 11.25 20.3852 11.6335 18.7233 12.39C18.252 12.6045 18.0439 13.1604 18.2584 13.6316C18.4729 14.1029 19.0287 14.3109 19.5 14.0965C20.9164 13.4518 22.4303 13.125 24 13.125C29.9964 13.125 34.875 18.0035 34.875 24C34.875 29.9965 29.9964 34.875 24 34.875C18.0036 34.875 13.125 29.9965 13.125 24C13.125 22.2491 13.528 20.5779 14.3229 19.0328C14.5598 18.5723 14.3785 18.007 13.9181 17.7702C13.4578 17.5332 12.8924 17.7146 12.6556 18.175C11.7361 19.9627 11.25 21.9769 11.25 24C11.25 31.0303 16.9696 36.75 24 36.75C31.0304 36.75 36.75 31.0303 36.75 24C36.75 16.9697 31.0304 11.25 24 11.25Z" fill="#7772F1"/>
<path d="M47.3523 22.7509C47.0805 22.3767 46.6206 21.7659 45.9731 20.981C44.9042 19.685 43.1617 17.722 40.9315 15.7307C38.4538 13.5184 35.9194 11.7519 33.3985 10.4804C30.2177 8.87606 27.0555 8.0625 24 8.0625C17.0937 8.0625 10.9812 12.2129 7.06959 15.6944C4.82409 17.6932 3.08747 19.6515 2.02594 20.9424C1.3665 21.7444 0.910313 22.3567 0.643688 22.7293C0.07575 23.523 0 23.7035 0 24C0 24.3109 0.08475 24.4744 0.647719 25.2491C0.9195 25.6233 1.37944 26.2341 2.02688 27.019C3.09581 28.315 4.83825 30.278 7.06847 32.2693C9.54619 34.4816 12.0806 36.2481 14.6015 37.5196C17.7823 39.1239 20.9445 39.9375 24 39.9375C28.7809 39.9375 33.7207 37.9977 38.682 34.1719C39.0921 33.8558 39.1682 33.2671 38.852 32.857C38.5359 32.447 37.9472 32.3708 37.5371 32.6871C32.9114 36.254 28.3568 38.0625 24 38.0625C17.8319 38.0625 12.2444 34.3082 8.64319 31.1587C5.22722 28.1712 2.84691 25.1111 2.049 23.9892C2.81972 22.8868 5.18344 19.8172 8.67056 16.7832C12.26 13.6602 17.8331 9.9375 24 9.9375C30.1681 9.9375 35.7556 13.6918 39.3568 16.8413C42.7743 19.8301 45.1553 22.8917 45.9521 24.0124C45.423 24.771 44.1592 26.4231 42.3346 28.3387C41.9775 28.7137 41.9919 29.307 42.3668 29.6642C42.7417 30.0212 43.3351 30.0067 43.6923 29.6318C45.0842 28.1705 46.1167 26.9046 46.7378 26.1C48 24.4649 48 24.2598 48 24C48 23.6891 47.9153 23.5256 47.3523 22.7509Z" fill="#7772F1"/>
<path d="M30.9469 20.7059C30.7778 20.3498 30.404 20.1374 30.0112 20.1748C29.6187 20.2121 29.2915 20.491 29.1925 20.8727C28.9999 21.6158 28.3282 22.1348 27.559 22.1348C26.6286 22.1348 25.8715 21.3777 25.8715 20.4473C25.8715 19.6766 26.3917 19.0045 27.1364 18.8129C27.5182 18.7147 27.7978 18.3879 27.8359 17.9954C27.8739 17.6031 27.6623 17.2287 27.3065 17.0588C26.2685 16.5637 25.156 16.3125 24 16.3125C19.7611 16.3125 16.3125 19.7611 16.3125 24C16.3125 28.2389 19.7611 31.6875 24 31.6875C28.2389 31.6875 31.6875 28.2389 31.6875 24.0001C31.6875 22.8491 31.4383 21.7408 30.9469 20.7059ZM24 29.8125C20.795 29.8125 18.1875 27.205 18.1875 24C18.1875 20.795 20.795 18.1875 24 18.1875C24.2578 18.1875 24.5126 18.204 24.7641 18.2368C24.2796 18.8498 23.9965 19.6217 23.9965 20.4472C23.9965 22.4115 25.5947 24.0097 27.559 24.0097C28.3818 24.0097 29.1519 23.728 29.7644 23.2456C29.7965 23.4939 29.8125 23.7456 29.8125 24C29.8125 27.205 27.205 29.8125 24 29.8125Z" fill="#7772F1"/>
<path d="M24 0C23.4822 0 23.0625 0.419813 23.0625 0.9375V6C23.0625 6.51769 23.4822 6.9375 24 6.9375C24.5178 6.9375 24.9375 6.51769 24.9375 6V0.9375C24.9375 0.419813 24.5178 0 24 0Z" fill="#7772F1"/>
<path d="M40.064 2.75887C39.6979 2.39287 39.1042 2.39287 38.7382 2.75887L34.2961 7.20103C33.9299 7.56722 33.93 8.16084 34.2961 8.52694C34.4792 8.70994 34.7191 8.80153 34.959 8.80153C35.1989 8.80153 35.4389 8.70994 35.6219 8.52694L40.064 4.08478C40.4301 3.71859 40.4301 3.12497 40.064 2.75887Z" fill="#7772F1"/>
<path d="M13.7065 7.201L9.26444 2.75884C8.89826 2.39293 8.30473 2.39284 7.93863 2.75884C7.57254 3.12503 7.57254 3.71865 7.93863 4.08475L12.3808 8.5269C12.5639 8.7099 12.8037 8.8015 13.0437 8.8015C13.2836 8.8015 13.5235 8.7099 13.7065 8.5269C14.0726 8.16072 14.0726 7.56709 13.7065 7.201Z" fill="#7772F1"/>
<path d="M24 41.0625C23.4822 41.0625 23.0625 41.4823 23.0625 42V47.0625C23.0625 47.5802 23.4822 48 24 48C24.5178 48 24.9375 47.5802 24.9375 47.0625V42C24.9375 41.4823 24.5178 41.0625 24 41.0625Z" fill="#7772F1"/>
<path d="M13.7065 39.4727C13.3404 39.1067 12.7468 39.1067 12.3807 39.4727L7.93863 43.9149C7.57254 44.2811 7.57254 44.8747 7.93863 45.2408C8.12173 45.4238 8.36163 45.5154 8.60154 45.5154C8.84145 45.5154 9.08145 45.4238 9.26445 45.2408L13.7065 40.7986C14.0727 40.4325 14.0726 39.8388 13.7065 39.4727Z" fill="#7772F1"/>
<path d="M40.0639 43.9149L35.6219 39.4727C35.2557 39.1068 34.6621 39.1067 34.2961 39.4727C33.93 39.8389 33.93 40.4325 34.2961 40.7986L38.7381 45.2408C38.9212 45.4238 39.161 45.5153 39.401 45.5153C39.6409 45.5153 39.8808 45.4238 40.0639 45.2408C40.43 44.8746 40.43 44.2809 40.0639 43.9149Z" fill="#7772F1"/>
<path d="M16.5339 14.7669C16.3595 14.5924 16.1177 14.4922 15.8711 14.4922C15.6245 14.4922 15.3827 14.5925 15.2083 14.7669C15.0339 14.9412 14.9336 15.1831 14.9336 15.4297C14.9336 15.6763 15.0339 15.9181 15.2083 16.0924C15.3827 16.2669 15.6245 16.3672 15.8711 16.3672C16.1177 16.3672 16.3595 16.2669 16.5339 16.0924C16.7083 15.9181 16.8086 15.6763 16.8086 15.4297C16.8086 15.1831 16.7083 14.9413 16.5339 14.7669Z" fill="#7772F1"/>
<path d="M41.3288 30.6195C41.1545 30.4452 40.9126 30.3457 40.666 30.3457C40.4195 30.3457 40.1776 30.4452 40.0032 30.6195C39.8288 30.7948 39.7285 31.0357 39.7285 31.2832C39.7285 31.5298 39.8288 31.7707 40.0032 31.946C40.1776 32.1205 40.4195 32.2207 40.666 32.2207C40.9126 32.2207 41.1545 32.1205 41.3288 31.946C41.5032 31.7707 41.6035 31.5298 41.6035 31.2832C41.6035 31.0357 41.5032 30.7938 41.3288 30.6195Z" fill="#7772F1"/>
</g>
<defs>
<clipPath id="clip0_16400_1250">
<rect width="48" height="48" fill="white"/>
</clipPath>
</defs>
</svg>

<svg xmlns="http://www.w3.org/2000/svg" width="48" height="48" fill="none"><g fill="#7772F1" clip-path="url(#a)"><path d="M24 11.25c-1.84 0-3.615.383-5.277 1.14a.937.937 0 1 0 .777 1.707 10.8 10.8 0 0 1 4.5-.972c5.996 0 10.875 4.878 10.875 10.875S29.996 34.875 24 34.875 13.125 29.997 13.125 24c0-1.75.403-3.422 1.198-4.967a.938.938 0 1 0-1.667-.858A12.8 12.8 0 0 0 11.25 24c0 7.03 5.72 12.75 12.75 12.75S36.75 31.03 36.75 24 31.03 11.25 24 11.25"/><path d="M47.352 22.75a37 37 0 0 0-1.379-1.769 49 49 0 0 0-5.041-5.25c-2.478-2.213-5.013-3.98-7.534-5.25-3.18-1.605-6.343-2.418-9.398-2.418-6.906 0-13.019 4.15-16.93 7.631a48 48 0 0 0-5.044 5.248A34 34 0 0 0 .644 22.73C.076 23.523 0 23.703 0 24c0 .31.085.474.648 1.25.271.373.731.984 1.379 1.769a49 49 0 0 0 5.041 5.25c2.478 2.213 5.013 3.98 7.534 5.25 3.18 1.605 6.343 2.419 9.398 2.419 4.78 0 9.72-1.94 14.682-5.766a.937.937 0 1 0-1.145-1.485c-4.626 3.567-9.18 5.376-13.537 5.376-6.168 0-11.756-3.755-15.357-6.904-3.416-2.988-5.796-6.048-6.594-7.17.77-1.102 3.134-4.172 6.622-7.206C12.26 13.66 17.833 9.937 24 9.937c6.168 0 11.756 3.755 15.357 6.904 3.417 2.99 5.798 6.05 6.595 7.171-.529.759-1.793 2.411-3.617 4.327a.938.938 0 1 0 1.357 1.293 46 46 0 0 0 3.046-3.532C48 24.465 48 24.26 48 24c0-.31-.085-.474-.648-1.25"/><path d="M30.947 20.706a.937.937 0 0 0-1.755.167 1.687 1.687 0 0 1-3.32-.426c0-.77.52-1.442 1.264-1.634a.938.938 0 0 0 .17-1.754A7.6 7.6 0 0 0 24 16.312c-4.239 0-7.687 3.45-7.687 7.688 0 4.239 3.448 7.688 7.687 7.688s7.688-3.45 7.688-7.688c0-1.15-.25-2.26-.741-3.294M24 29.813A5.82 5.82 0 0 1 18.188 24a5.82 5.82 0 0 1 6.576-5.763 3.56 3.56 0 0 0-.767 2.21 3.567 3.567 0 0 0 3.562 3.563c.823 0 1.593-.282 2.205-.764q.05.373.049.754A5.82 5.82 0 0 1 24 29.813M24 0a.94.94 0 0 0-.937.938V6a.938.938 0 0 0 1.875 0V.938A.94.94 0 0 0 24 0M40.064 2.759a.94.94 0 0 0-1.326 0L34.296 7.2a.938.938 0 0 0 1.326 1.326l4.442-4.442a.94.94 0 0 0 0-1.326M13.707 7.201 9.264 2.759A.938.938 0 0 0 7.94 4.085l4.442 4.442a.935.935 0 0 0 1.326 0 .94.94 0 0 0 0-1.326M24 41.063a.94.94 0 0 0-.937.937v5.063a.938.938 0 0 0 1.875 0V42a.94.94 0 0 0-.938-.937M13.707 39.473a.94.94 0 0 0-1.326 0l-4.442 4.442a.938.938 0 0 0 1.325 1.326l4.443-4.442a.94.94 0 0 0 0-1.326M40.064 43.915l-4.442-4.442a.938.938 0 0 0-1.326 1.326l4.442 4.442a.935.935 0 0 0 1.326 0 .94.94 0 0 0 0-1.326M16.534 14.767a.94.94 0 0 0-.663-.275c-.247 0-.488.1-.663.275a.94.94 0 0 0-.274.663c0 .246.1.488.274.662a.94.94 0 0 0 .663.275c.247 0 .489-.1.663-.275a.94.94 0 0 0 .275-.662c0-.247-.1-.489-.275-.663M41.329 30.62a.94.94 0 0 0-.663-.274c-.246 0-.488.1-.663.273a.95.95 0 0 0-.275.664c0 .247.1.488.275.663a.94.94 0 0 0 .663.275c.247 0 .489-.1.663-.275a.95.95 0 0 0 .274-.663c0-.247-.1-.49-.274-.664"/></g><defs><clipPath id="a"><path fill="#fff" d="M0 0h48v48H0z"/></clipPath></defs></svg>
